src/cmd/lc_spacing.svg

<svg viewBox="0 0 24 24" xmlns="http://www.w3.org/2000/svg"><path d="m4 4v2 1 2 1h1 2c1.108 0 2-.892 2-2 0-.81094-.481265-1.5018963-1.171875-1.8164062.10595-.2058501.171875-.4352838.171875-.6835938 0-.831-.669-1.5-1.5-1.5h-1.5zm11 0v6h2 1c1.10801 0 2-.89199 2-2v-2c0-1.10801-.89199-2-2-2h-1zm-10 1h1.5c.277 0 .5.223.5.5s-.223.5-.5.5h-1.5zm11 0h1 1c.55401 0 1 .44599 1 1v2c0 .55401-.44599 1-1 1h-1-1zm-11 2h1.5.5c.554 0 1 .446 1 1s-.446 1-1 1h-2zm6 0v1h2v-1zm-6 6v1h2v-1zm4 0v1h2v-1zm4 0v1h2v-1zm4 0v1h2v-1zm-11 3-2 2 2 2zm12 0v4l2-2zm-6 1c-.554 0-1 .446-1 1s.446 1 1 1 1-.446 1-1-.446-1-1-1z" fill="#232629"/></svg>

<?xml version="1.0" encoding="UTF-8" standalone="no"?>
<svg
   xmlns:dc="http://purl.org/dc/elements/1.1/"
   xmlns:cc="http://creativecommons.org/ns#"
   xmlns:rdf="http://www.w3.org/1999/02/22-rdf-syntax-ns#"
   xmlns:svg="http://www.w3.org/2000/svg"
   xmlns="http://www.w3.org/2000/svg"
   xmlns:sodipodi="http://sodipodi.sourceforge.net/DTD/sodipodi-0.dtd"
   xmlns:inkscape="http://www.inkscape.org/namespaces/inkscape"
   viewBox="0 0 24 24"
   version="1.1"
   id="svg4"
   sodipodi:docname="lc_spacing.svg"
   inkscape:export-filename="/home/jupiter007/Libreoffice yaru theme fullcolor/build/cmd/lc_spacing.png"
   inkscape:export-xdpi="96"
   inkscape:export-ydpi="96"
   inkscape:version="0.92.5 (2060ec1f9f, 2020-04-08)">
  <metadata
     id="metadata10">
    <rdf:RDF>
      <cc:Work
         rdf:about="">
        <dc:format>image/svg+xml</dc:format>
        <dc:type
           rdf:resource="http://purl.org/dc/dcmitype/StillImage" />
      </cc:Work>
    </rdf:RDF>
  </metadata>
  <defs
     id="defs8" />
  <sodipodi:namedview
     pagecolor="#ffffff"
     bordercolor="#666666"
     borderopacity="1"
     objecttolerance="10"
     gridtolerance="10"
     guidetolerance="10"
     inkscape:pageopacity="0"
     inkscape:pageshadow="2"
     inkscape:window-width="1920"
     inkscape:window-height="1011"
     id="namedview6"
     showgrid="true"
     inkscape:zoom="27.812867"
     inkscape:cx="3.2325878"
     inkscape:cy="10.636679"
     inkscape:window-x="1920"
     inkscape:window-y="32"
     inkscape:window-maximized="1"
     inkscape:current-layer="svg4">
    <inkscape:grid
       type="xygrid"
       id="grid827" />
  </sodipodi:namedview>
  <path
     sodipodi:nodetypes="ccccccsscsscccccsssscccsssccccsssscccccsssccccccc"
     style="fill:#000000;stroke:#000000;opacity:0.6;stroke-width:2;stroke-miterlimit:4;stroke-dasharray:none;stroke-linejoin:round"
     inkscape:connector-curvature="0"
     id="path817"
     d="m 4,4 v 2 1 2 1 H 5 7 C 8.108,10 9,9.108 9,8 9,7.18906 8.518735,6.4981037 7.828125,6.1835938 7.934075,5.9777437 8,5.74831 8,5.5 8,4.669 7.331,4 6.5,4 H 5 Z m 11,0 v 6 h 2 1 c 1.10801,0 2,-0.89199 2,-2 V 6 C 20,4.89199 19.10801,4 18,4 H 17 Z M 5,5 H 6.5 C 6.777,5 7,5.223 7,5.5 7,5.777 6.777,6 6.5,6 H 5 Z m 11,0 h 1 1 c 0.55401,0 1,0.44599 1,1 v 2 c 0,0.55401 -0.44599,1 -1,1 H 17 16 Z M 5,7 H 6.5 7 C 7.554,7 8,7.446 8,8 8,8.554 7.554,9 7,9 H 5 Z m 6,0 v 1 h 2 V 7 Z" />
  <path
     d="m 4,4 v 2 1 2 1 H 5 7 C 8.108,10 9,9.108 9,8 9,7.18906 8.518735,6.4981037 7.828125,6.1835938 7.934075,5.9777437 8,5.74831 8,5.5 8,4.669 7.331,4 6.5,4 H 5 Z m 11,0 v 6 h 2 1 c 1.10801,0 2,-0.89199 2,-2 V 6 C 20,4.89199 19.10801,4 18,4 H 17 Z M 5,5 H 6.5 C 6.777,5 7,5.223 7,5.5 7,5.777 6.777,6 6.5,6 H 5 Z m 11,0 h 1 1 c 0.55401,0 1,0.44599 1,1 v 2 c 0,0.55401 -0.44599,1 -1,1 H 17 16 Z M 5,7 H 6.5 7 C 7.554,7 8,7.446 8,8 8,8.554 7.554,9 7,9 H 5 Z m 6,0 v 1 h 2 V 7 Z"
     id="path2"
     inkscape:connector-curvature="0"
     style="fill:#ffffff"
     sodipodi:nodetypes="ccccccsscsscccccsssscccsssccccsssscccccsssccccccc" />
  <path
     style="opacity:0.6;fill:#000000;fill-opacity:1;stroke:#000000;stroke-width:2;stroke-linecap:butt;stroke-linejoin:round;stroke-miterlimit:4;stroke-dasharray:none;stroke-opacity:1"
     d="M 8,14 3,17.5 8,21 v -2 h 2 4 2 v 2 L 21,17.5 16,14 v 2 H 14 10 8 Z"
     id="path839"
     inkscape:connector-curvature="0"
     sodipodi:nodetypes="ccccccccccccccc" />
  <path
     style="fill:#aee3f8;fill-opacity:1;stroke:none;stroke-width:1px;stroke-linecap:butt;stroke-linejoin:miter;stroke-opacity:1"
     d="M 8,14 3,17.5 8,21 v -2 h 2 4 2 v 2 L 21,17.5 16,14 v 2 H 14 10 8 Z"
     id="path841"
     inkscape:connector-curvature="0"
     sodipodi:nodetypes="ccccccccccccccc" />
</svg>
